X:1
T: Kenny Wilson's Jig
C:
R:Jig
Q:180
K:G
M:6/8
L:1/16
D2|G2A2G2 F2E2F2|D4d2 d2B2G2|E4c2 D4B2|^C2E2A2 F2E2F2|G2A2G2 F2E2F2|D4d2 d2B2G2|E2c2B2 A2G2F2|G6G4D2|
G2A2G2 F2E2F2|D4d2 d2B2G2|E4c2 D4B2|^C2E2A2 F2E2F2|G2A2G2 F2E2F2|D4d2 d2B2G2|E2c2B2 A2G2F2|G6G4D2|
G2B2d2 g4f2|e2g2e2 c4e2|d2B2G2 G2F2G2|E2F2G2 A4D2|G2B2d2 g4f2|e2c2e2 g2f2e2|d2c2B2 A2G2F2|G6G4D2|
G2B2d2 g4f2|e2g2e2 c2d2e2|d2B2G2 G2F2G2|E2F2G2 A2F2D2|G2A2G2 F2E2F2|D4d2 d2B2G2|E2c2B2 A2G2F2|G6G4||
